X:1
T:Title
%%score { ( 1 4 6 ) | ( 2 3 5 ) }
L:1/8
Q:1/4=100
M:4/4
K:C
V:1 treble nm="Grand Piano"
V:4 treble 
V:6 treble 
V:2 bass 
V:3 bass 
V:5 bass 
V:1
 [CE]>F ^F>G [=Fd]2 [CEc]2 | [FB]6 z2 | [DF]>G A>B [Ge]2 [Fd]2 | E4 z4[K:bass] | %4
w: Arthur~W.~Nelson * * * * *||||
 [CE]>F ^F>G [=Fd]2 c2 | B6 z2 | [^Fd]2 [CEc]2 [CE]2 [CF]2 | G,2 z2 z2 A>B | %8
w: ||||
 [Ec]3- [Ec]/B/ [Ed]>[Ec] [EG]>[EA] | [FB]6[K:bass] z2 | d4 z4 | [CEc]6 z2 | [Ge]4 z4 | %13
w: |||||
 [FA]2 [G^c]2 [Fd]2 [Af]2 | [Ge]>G ^F>G A2 B2 | d4 [Ec]2 z2 |] %16
w: |||
V:2
 z z/ D/ _E>=E C,2 G,2 | D,2 B,>[K:treble]C E>D B,>A, | z z/ E/ F>F[K:bass] G,,2 [G,B,]2 | %3
 C,2 G,2 [D,B,]>C, B,,>A,, | z z/ D/ _E>=E C,2 [G,CE]2 | [D,D]2 [G,B,]2 D,2 F,2 | D,2 A,2 D,2 A,2 | %7
 z4 z G z2 | [C,G,]2 z z/ E/ [C,G,]2 [C,G,]2 | G,6 z2 | F3- F/F/ F>F F>F | C,2 E,2 G,2 C2 | %12
 [C,C]2 z z/ F/ [C,G,]2 [C,C]2 | [F,C]2 [E,A,]2 [D,A,]2 [D,D]2 | z z/ E/ _E>=E [G,DF]2 [G,DF]2 | %15
 [G,B,F]4[K:bass] [C,C]2 z2 |] %16
V:3
 C,2 [G,C]2 z4 | x7/2[K:treble] x9/2 | G,2 [B,D]2[K:bass] z4 | x8 | C,2 [G,C]2 z4 | x8 | x8 | %7
 z4 G,2 z2 | z2 G,,2 z4 | D,2 z2 z4 | [G,B,]2 G,2 [G,B,]2 [G,B,]2 | x8 | z2 C,2 z4 | x8 | %14
 [G,C]4 z4 | x4[K:bass] x4 |] %16
V:4
 x8 | x8 | x8 | G2- [CG-]2 [F-G]F/[K:bass]G,/ F,>D, | x8 | z2 E2 F2 [GB]2 | x8 | [B,G]6 z2 | x8 | %9
 z2[K:bass] G,,2 D,2 G,,2 | z2 z z/ ^c/ e>d B>G | x8 | z2 z z/ d/ [Ec]>[EG] [_E^F]>[=EG] | x8 | %14
 x8 | x8 |] %16
V:5
 x8 | x7/2[K:treble] x9/2 | x4[K:bass] x4 | x8 | x8 | x8 | x8 | G,,>G,, B,,>D, z z/ F,/ E,>D, | %8
 x8 | x8 | x8 | x8 | x8 | x8 | x8 | x4[K:bass] x4 |] %16
V:6
 x8 | x8 | x8 | x11/2[K:bass] x5/2 | x8 | x8 | x8 | x8 | x8 | x2[K:bass] x6 | z2 B,2 z4 | x8 | %12
 z2 C2 z4 | x8 | x8 | x8 |] %16

